symbols/fr/TIV-distance-70-sign.svg

<?xml version="1.0" encoding="UTF-8" standalone="no"?>
<svg
   width="16"
   height="16"
   viewBox="0 0 16 16"
   version="1.1"
   id="svg620"
   sodipodi:docname="TIV-distance-70-sign.svg"
   inkscape:version="1.2.2 (b0a8486541, 2022-12-01)"
   xmlns:inkscape="http://www.inkscape.org/namespaces/inkscape"
   xmlns:sodipodi="http://sodipodi.sourceforge.net/DTD/sodipodi-0.dtd"
   xmlns="http://www.w3.org/2000/svg"
   xmlns:svg="http://www.w3.org/2000/svg">
  <defs
     id="defs624" />
  <sodipodi:namedview
     id="namedview622"
     pagecolor="#ffffff"
     bordercolor="#666666"
     borderopacity="1.0"
     inkscape:showpageshadow="2"
     inkscape:pageopacity="0.0"
     inkscape:pagecheckerboard="0"
     inkscape:deskcolor="#d1d1d1"
     showgrid="false"
     inkscape:zoom="18.592801"
     inkscape:cx="12.988898"
     inkscape:cy="17.130286"
     inkscape:window-width="1920"
     inkscape:window-height="1008"
     inkscape:window-x="0"
     inkscape:window-y="0"
     inkscape:window-maximized="1"
     inkscape:current-layer="svg620" />
  <path
     fill-rule="nonzero"
     fill="#ffffff"
     fill-opacity="1"
     d="M 0,0 H 16 V 16 H 0 Z m 0,0"
     id="path596" />
  <path
     fill-rule="nonzero"
     fill="#000000"
     fill-opacity="1"
     d="M 0.160156,0.160156 H 15.839844 V 15.839844 H 0.160156 Z m 0,0"
     id="path598" />
  <path
     fill-rule="nonzero"
     fill="#ffffff"
     fill-opacity="1"
     d="M 1.121094,1.121094 H 14.878906 V 14.878906 H 1.121094 Z m 0,0"
     id="path600" />
  <path
     fill-rule="nonzero"
     fill="#000000"
     fill-opacity="1"
     d="m 7.789062,5.792969 c -0.191406,0.1875 -0.453124,0.519531 -0.792968,1 C 6.660156,7.273438 6.375,7.765625 6.148438,8.277344 5.964844,8.675781 5.804688,9.164062 5.660156,9.742188 5.511719,10.320312 5.441406,10.796875 5.441406,11.167969 H 4.125 C 4.164062,10.011719 4.542969,8.808594 5.261719,7.558594 5.726562,6.785156 6.117188,6.246094 6.433594,5.941406 H 3.214844 L 3.234375,4.800781 h 4.554687 z m 1.839844,2.210937 c 0,0.742188 0.0625,1.308594 0.183594,1.703125 0.121094,0.390625 0.371094,0.589844 0.746094,0.589844 0.378906,0 0.625,-0.199219 0.742187,-0.589844 0.117188,-0.394531 0.175781,-0.960937 0.175781,-1.703125 0,-0.777344 -0.05859,-1.351562 -0.175781,-1.726562 C 11.183594,5.90625 10.9375,5.71875 10.558594,5.71875 c -0.375,0 -0.625,0.1875 -0.746094,0.558594 -0.121094,0.375 -0.183594,0.949218 -0.183594,1.726562 z m 0.929688,-3.332031 c 0.824218,0 1.398437,0.289063 1.730468,0.867187 0.328126,0.578126 0.496094,1.402344 0.496094,2.464844 0,1.066406 -0.167968,1.886719 -0.496094,2.460938 -0.332031,0.574218 -0.90625,0.863281 -1.730468,0.863281 -0.820313,0 -1.394532,-0.289063 -1.726563,-0.863281 C 8.5,9.890625 8.335938,9.070312 8.335938,8.003906 8.335938,6.941406 8.5,6.117188 8.832031,5.539062 9.164062,4.960938 9.738281,4.671875 10.558594,4.671875 Z M 2.984375,4.152344"
     id="path618" />
</svg>

<?xml version="1.0" encoding="UTF-8"?>
<svg xmlns="http://www.w3.org/2000/svg" xmlns:xlink="http://www.w3.org/1999/xlink" width="16" height="16" viewBox="0 0 16 16">
<rect x="-1.6" y="-1.6" width="19.2" height="19.2" fill="rgb(100%, 100%, 100%)" fill-opacity="1"/>
<path fill-rule="nonzero" fill="rgb(0%, 0%, 0%)" fill-opacity="1" d="M 0.160156 0.160156 L 15.839844 0.160156 L 15.839844 15.839844 L 0.160156 15.839844 Z M 0.160156 0.160156 "/>
<path fill-rule="nonzero" fill="rgb(100%, 100%, 100%)" fill-opacity="1" d="M 1.121094 1.121094 L 14.878906 1.121094 L 14.878906 14.878906 L 1.121094 14.878906 Z M 1.121094 1.121094 "/>
<path fill-rule="nonzero" fill="rgb(0%, 0%, 0%)" fill-opacity="1" d="M 7.789062 5.792969 C 7.597656 5.980469 7.335938 6.3125 6.996094 6.792969 C 6.660156 7.273438 6.375 7.765625 6.148438 8.277344 C 5.964844 8.675781 5.804688 9.164062 5.660156 9.742188 C 5.511719 10.320312 5.441406 10.796875 5.441406 11.167969 L 4.125 11.167969 C 4.164062 10.011719 4.542969 8.808594 5.261719 7.558594 C 5.726562 6.785156 6.117188 6.246094 6.433594 5.941406 L 3.214844 5.941406 L 3.234375 4.800781 L 7.789062 4.800781 Z M 9.628906 8.003906 C 9.628906 8.746094 9.691406 9.3125 9.8125 9.707031 C 9.933594 10.097656 10.183594 10.296875 10.558594 10.296875 C 10.9375 10.296875 11.183594 10.097656 11.300781 9.707031 C 11.417969 9.3125 11.476562 8.746094 11.476562 8.003906 C 11.476562 7.226562 11.417969 6.652344 11.300781 6.277344 C 11.183594 5.90625 10.9375 5.71875 10.558594 5.71875 C 10.183594 5.71875 9.933594 5.90625 9.8125 6.277344 C 9.691406 6.652344 9.628906 7.226562 9.628906 8.003906 Z M 10.558594 4.671875 C 11.382812 4.671875 11.957031 4.960938 12.289062 5.539062 C 12.617188 6.117188 12.785156 6.941406 12.785156 8.003906 C 12.785156 9.070312 12.617188 9.890625 12.289062 10.464844 C 11.957031 11.039062 11.382812 11.328125 10.558594 11.328125 C 9.738281 11.328125 9.164062 11.039062 8.832031 10.464844 C 8.5 9.890625 8.335938 9.070312 8.335938 8.003906 C 8.335938 6.941406 8.5 6.117188 8.832031 5.539062 C 9.164062 4.960938 9.738281 4.671875 10.558594 4.671875 Z M 2.984375 4.152344 "/>
</svg>
